X: 41390
T: Twelve Pins, The
R: reel
M: 4/4
K: Gmajor
f3e defg|a2fd cAAB|c2cB cBAB|cedB cAA2|
f3e defg|a2fd cAAB|c2cB cBAB|cedc BGG2|
f3e defg|a2fd cAAB|c2cB cdeg|a2ga fdde|
f3g a3g|f3e dcAB|c2cB cBAB|cedc BGG2||

